X: 1

T:Whitecross

R:reel

C:Ed Reavy

M:2/2

L:1/8

Z:Joe Reavy

N:A title Ed picked for Lou Quinn, a lifetime close friend who comes from

N:a place near Whitecross in County Armagh. It was mainly through Lou's

N:encouragement and support that Ed continued to write traditional tunes

N:for the last sixty years.

K:G

B,C | DG (3GFG G,A,B,C | DEFD (3GFG GA | BGdG Bcde | =fdBd Af (3FEF |

GABc de=fd | g^fdB c2 Bc | dg (3gfg dcBd |1 cA=FA G2 :|2 cA=FA G2 GA ||

K:Bb

B2 df =egcA | B2 dB AcFA | B2 df =egcA | (3Bcd cA BGGA | B2 FB DBFB |

DBFB AF (3F=EF | GABc d2 CA | BdcA BGGA | B2 df =egcA | B2 dB AcFA |

B2 df =egcA | (3Bcd cA BGGA | B2 FB DBFB | DBFB AF (3F=EF |

GABc (3dcB (3cbA | BdcA BGG=F ||

                       

WHITEFACE. Old-Time, Breakdown. E Minor. Standard tuning. ABCCC. Composed by Joe Thrift of the Redhots in honor of a white-faced cow. Silberberg (Tunes I Learned at Tractor Tavern), 2002; pg. 169.

                       

WHITEFACE REEL. New England, Reel. A Dorian. Standard tuning. AABB. Composed and performed by Tom McCreesh for the 1980 Lake Placid, N.Y., XIII Olympic Winter Games. The title perhaps refers to cliff faces on mountains in the North East. Spandaro (10 Cents a Dance), 1980; pg. 50. Front Hall Records FHR023, Michael, McCreesh, and Campbell ‑ "The Host of the Air" (1980).

 

WHITEFISH ON THE RAPIDS. See “White Fish in the Rapids.”

 

WHITEHAVEN VOLUNTEERS. English, Country Dance Tune (2/4 time). G Major. Standard tuning. AABB. The melody is in a similar vein to “Petronella.” The Whitehaven Volunteers were probably a local militia unit raised during the Napoleonic Wars, from Whitehaven, Cumbria, England, although Barry Callaghan says they were raised for the American War of Independence in 1778. A racing purse in the name of the Whitehaven Volunteers (‘The Whitehaven Volunteers’ Plate’) survived until at least until the mid-1860’s when winners for the Whitehaven racecourse were announced in the racing calendars. It is sometimes played as a hornpipe, schottische or barndance, depending on the amount of “swing” or dotted rhythms are employed. Source for notated version: the music manuscript collection of William Docker (Newby Head, Cumbria) [Callaghan, Knowles]. Callaghan (Hardcore English), 2007; pg. 54. Knowles (A Northern Lass), 1995; pg. 15. Harbourtown Records HARCD 047, The Boat Band – “A Trip to the Lakes” (2006).

